prianera/img/purchase/purchase-4.svg

<svg width="59" height="59" viewBox="0 0 59 59" fill="none" xmlns="http://www.w3.org/2000/svg">
<g clip-path="url(#clip0)">
<path d="M29.4996 18.2576C23.3008 18.2576 18.258 23.3004 18.258 29.4988C18.258 35.6976 23.3008 40.7404 29.4996 40.7404C35.698 40.7404 40.7408 35.6976 40.7408 29.4988C40.7408 23.3004 35.698 18.2576 29.4996 18.2576ZM36.1738 27.3818L28.1204 35.4351C27.7824 35.7732 27.339 35.9424 26.896 35.9424C26.4531 35.9424 26.0102 35.7736 25.6721 35.4351L22.5946 32.3576C21.9185 31.6819 21.9185 30.5858 22.5946 29.9097C23.2702 29.2336 24.3663 29.2336 25.0424 29.9097L26.896 31.7634L33.7259 24.934C34.4016 24.2579 35.4977 24.2579 36.1738 24.934C36.8499 25.6096 36.8499 26.7057 36.1738 27.3818Z" fill="#07BBF0"/>
<path d="M54.5621 16.0084L54.5603 15.9625C54.5346 15.3958 54.5175 14.7962 54.5071 14.1291C54.459 10.876 51.873 8.18513 48.6194 8.00327C41.8359 7.62471 36.5882 5.41276 32.1045 1.04241L32.0662 1.00595C30.6037 -0.334993 28.3976 -0.334993 26.9347 1.00595L26.8964 1.04241C22.4127 5.41276 17.165 7.62471 10.3815 8.00372C7.12839 8.18513 4.54192 10.876 4.49376 14.1296C4.48386 14.7922 4.4663 15.3918 4.44065 15.9625L4.43794 16.0692C4.30606 22.9864 4.14221 31.5952 7.02216 39.4091C8.60573 43.706 11.004 47.4412 14.15 50.5116C17.7331 54.0082 22.4262 56.7842 28.0987 58.7621C28.2833 58.8264 28.475 58.8787 28.6704 58.9178C28.9459 58.9727 29.2232 59.0002 29.5005 59.0002C29.7777 59.0002 30.0555 58.9727 30.3305 58.9178C30.5259 58.8787 30.719 58.826 30.9044 58.7612C36.5702 56.7797 41.2584 54.0024 44.8383 50.5062C47.9829 47.4349 50.3812 43.6988 51.9661 39.401C54.8569 31.5637 54.6935 22.9387 54.5621 16.0084ZM29.4995 44.2048C21.3918 44.2048 14.796 37.609 14.796 29.5012C14.796 21.3934 21.3918 14.7976 29.4995 14.7976C37.6069 14.7976 44.2031 21.3934 44.2031 29.5012C44.2031 37.609 37.6069 44.2048 29.4995 44.2048Z" fill="#5D5D5D"/>
</g>
<defs>
<clipPath id="clip0">
<rect width="59" height="59" fill="white" transform="matrix(1 0 0 -1 0 59)"/>
</clipPath>
</defs>
</svg>

<svg width="59" height="59" fill="none" xmlns="http://www.w3.org/2000/svg"><g clip-path="url(#clip0)"><path d="M29.5 18.258c-6.2 0-11.242 5.042-11.242 11.24 0 6.2 5.043 11.242 11.242 11.242 6.198 0 11.24-5.042 11.24-11.241S35.699 18.258 29.5 18.258zm6.674 9.124l-8.054 8.053a1.726 1.726 0 0 1-2.448 0l-3.077-3.077a1.73 1.73 0 1 1 2.447-2.448l1.854 1.853 6.83-6.829a1.73 1.73 0 1 1 2.448 2.448z" fill="#07BBF0"/><path d="M54.562 16.008l-.002-.045a61.497 61.497 0 0 1-.053-1.834c-.048-3.253-2.634-5.944-5.888-6.126-6.783-.378-12.03-2.59-16.514-6.96l-.039-.037a3.776 3.776 0 0 0-5.131 0l-.039.036c-4.483 4.37-9.731 6.583-16.514 6.962-3.254.181-5.84 2.872-5.888 6.126-.01.662-.028 1.262-.053 1.832l-.003.107c-.132 6.917-.296 15.526 2.584 23.34 1.584 4.297 3.982 8.032 7.128 11.103 3.583 3.496 8.276 6.272 13.949 8.25A4.315 4.315 0 0 0 29.5 59a4.238 4.238 0 0 0 1.404-.239c5.666-1.981 10.354-4.759 13.934-8.255 3.145-3.071 5.543-6.807 7.128-11.105 2.89-7.837 2.727-16.462 2.596-23.393zM29.5 44.205c-8.108 0-14.704-6.596-14.704-14.704S21.392 14.798 29.5 14.798c8.107 0 14.703 6.595 14.703 14.703S37.607 44.205 29.5 44.205z" fill="#5D5D5D"/></g><defs><clipPath id="clip0"><path fill="#fff" transform="matrix(1 0 0 -1 0 59)" d="M0 0h59v59H0z"/></clipPath></defs></svg>
